X: 4079
M: C|
L: 1/8
K: D
|:\
(3(ABA) (FA) (3(ABA) (FA) | (3(ABA) (FD) (EF)(GE) |\
(3(ABA) FA (dA)FA | GEFD EFGE :|
|:\
e2(ge) bege | e2(ge) fagf |\
e2(ge) bege | b2(ge) fagf ::\
d2(cA) BcBA | dBcA EFGE |\
d2(cA) BcBA | GEFD EFGE :|


